X: 36415
T: Sean's Delight
R: reel
M: 4/4
K: Gmajor
|:(3DEF|G2DC B,G,G,B,|DG,B,D GBdg|edcB cBAG|FdAG FDEF|
G2DC B,G,G,B,|DG,B,D GBdg|edcB cBAG|FGAF G2:|
|:Bc|d2Bd gBdg|BdgB dgBd|cA A2 aged|c2dc AGFA|
G2DC B,G,G,B,|DG,B,D GBdg|edcB cBAG|FGAF G2:|

